static/assets/img/icons/theme/files/file-done.svg

<svg height="24" viewBox="0 0 24 24" width="24" xmlns="http://www.w3.org/2000/svg"><g fill="none" fill-rule="evenodd"><path d="m0 0h24v24h-24z" opacity="0"/><g fill="#000"><path d="m5.85714286 2h7.87926854c.3546848 0 .6978952.12568431.9686994.35473959l4.7635886 4.02920201c.3369538.28500673.5313006.70393663.5313006 1.14526041v12.55413129c0 1.7905418-.0204479 1.9166667-1.8571429 1.9166667h-12.28571424c-1.83669499 0-1.85714286-.1261249-1.85714286-1.9166667v-16.16666663c0-1.79054178.02044787-1.91666667 1.85714286-1.91666667zm5.01785714 13.75c.2395833 0 .4791667-.0958333.6708333-.2875l3.8333334-3.8333333c.3833333-.3833334.3833333-.9583334 0-1.3416667-.3833334-.38333333-.9583334-.38333333-1.3416667 0l-3.1625 3.1625-1.24583333-1.2458333c-.33541667-.3833334-.95833334-.3833334-1.34166667 0-.38333333.3833333-.38333333.9583333 0 1.3416666l1.9166667 1.9166667c.1916666.1916667.43125.2875.6708333.2875z" fill-rule="nonzero" opacity=".3"/><path d="m10.875 15.75c-.2395833 0-.4791667-.0958333-.6708333-.2875l-1.9166667-1.9166667c-.38333333-.3833333-.38333333-.9583333 0-1.3416666.38333333-.3833334 1.00625-.3833334 1.34166667 0l1.24583333 1.2458333 3.1625-3.1625c.3833333-.38333333.9583333-.38333333 1.3416667 0 .3833333.3833333.3833333.9583333 0 1.3416667l-3.8333334 3.8333333c-.1916666.1916667-.43125.2875-.6708333.2875z"/></g></g></svg>

<svg width="24px" height="24px" viewBox="0 0 24 24" version="1.1" xmlns="http://www.w3.org/2000/svg" xmlns:xlink="http://www.w3.org/1999/xlink">
    <title>Icon For File-done</title>
    <g stroke="none" stroke-width="1" fill="none" fill-rule="evenodd">
        <polygon points="0 0 24 0 24 24 0 24" opacity="0"></polygon>
        <path d="M5.85714286,2 L13.7364114,2 C14.0910962,2 14.4343066,2.12568431 14.7051108,2.35473959 L19.4686994,6.3839416 C19.8056532,6.66894833 20,7.08787823 20,7.52920201 L20,20.0833333 C20,21.8738751 19.9795521,22 18.1428571,22 L5.85714286,22 C4.02044787,22 4,21.8738751 4,20.0833333 L4,3.91666667 C4,2.12612489 4.02044787,2 5.85714286,2 Z M10.875,15.75 C11.1145833,15.75 11.3541667,15.6541667 11.5458333,15.4625 L15.3791667,11.6291667 C15.7625,11.2458333 15.7625,10.6708333 15.3791667,10.2875 C14.9958333,9.90416667 14.4208333,9.90416667 14.0375,10.2875 L10.875,13.45 L9.62916667,12.2041667 C9.29375,11.8208333 8.67083333,11.8208333 8.2875,12.2041667 C7.90416667,12.5875 7.90416667,13.1625 8.2875,13.5458333 L10.2041667,15.4625 C10.3958333,15.6541667 10.6354167,15.75 10.875,15.75 Z" fill="#000000" fill-rule="nonzero" opacity="0.3"></path>
        <path d="M10.875,15.75 C10.6354167,15.75 10.3958333,15.6541667 10.2041667,15.4625 L8.2875,13.5458333 C7.90416667,13.1625 7.90416667,12.5875 8.2875,12.2041667 C8.67083333,11.8208333 9.29375,11.8208333 9.62916667,12.2041667 L10.875,13.45 L14.0375,10.2875 C14.4208333,9.90416667 14.9958333,9.90416667 15.3791667,10.2875 C15.7625,10.6708333 15.7625,11.2458333 15.3791667,11.6291667 L11.5458333,15.4625 C11.3541667,15.6541667 11.1145833,15.75 10.875,15.75 Z" fill="#000000"></path>
    </g>
</svg>
